X: 1
T: Flowers Of Alston, The
M: 3/4
L: 1/8
R: mazurka
K: Dmaj
|: A>G |\ 
F>A d2 e>d | c>e g2 e>f | g>e f>d (3edc | d>f A2 A>G |
F>A d2 e>d | c>e G2 B>G | F>d G>e d>c | d2 D2 :|
|: A>G |\ 
F>A d2 A>F | B>G D2 B>A | ^G>B e2 (3Bcd | c>A E2 A>G |
F>A d>A (3fed | c>e G2 B>G | F>d G>e d>c | d2 D2 :|
